X: 4
T: Bonaparte Crossing The Rhine
Z: ceolachan
S: https://thesession.org/tunes/7#setting12363
R: march
M: 4/4
L: 1/8
K: Ador
|:E>G|A2 A>B A>GE<G|c>d (3edc d2 e>g|a>ge>d (3cBA B>A|G>AG<E G2 c>B|
A2- AB AG (3EFG|c2 e>c (3ddd (3efg|a>ge<d c>AG<E|A2 A>^G A2:|
|:e<g|a>g (3eed c>de>f|g>ag<e g2 c'>b|a>ge>d c2 (3cBA|G2- G>E G2 (3EFG|
(3AAA A>B A>G (GGG|c<de>c d2 (3efg|a2 (3ged c2 B<G|(3AAA A<^G A2:|

